Alemania/Otras categorias/Football Club Hannover.svg

<svg enable-background="new 0 0 660 660" viewBox="0 0 660 660" xmlns="http://www.w3.org/2000/svg"><circle cx="323.413" cy="323.428" fill="#fffffc" r="296.797" stroke="#000" stroke-width="4.7499"/><ellipse cx="323.413" cy="323.428" fill="#277346" rx="261.038" ry="261.038" transform="matrix(.7071 -.7071 .7071 .7071 -133.9729 323.4176)"/><g stroke="#fffffc" stroke-width="1.5833"><path d="m312.433 394.039c0 69.207 56.105 125.313 125.314 125.313 69.21 0 125.315-56.106 125.315-125.313 0-59.393-41.332-109.099-96.789-122.016 13.132-22.789 39.551-68.637 92.732-160.918h-96.385l-120.782 202.31c-17.87 26.67-29.405 49.912-29.405 80.624zm172.308 0c0 25.953-21.042 46.993-46.995 46.993-25.952 0-46.994-21.04-46.994-46.993 0-25.954 21.042-46.994 46.994-46.994 25.954 0 46.995 21.04 46.995 46.994z"/><path d="m335.873 250.885c0-69.208-56.106-125.313-125.317-125.313-69.207 0-125.313 56.105-125.313 125.313 0 59.391 41.332 109.097 96.791 122.015-13.132 22.789-39.552 68.636-92.733 160.918h96.385l120.78-202.308c16.391-31.4 29.407-49.911 29.407-80.625zm-172.307 0c0-25.952 21.037-46.993 46.99-46.993 25.954 0 46.995 21.04 46.995 46.993 0 25.954-21.042 46.994-46.995 46.994-25.952 0-46.99-21.04-46.99-46.994z"/></g></svg>

<?xml version="1.0" encoding="iso-8859-1"?>
<!-- Generator: Adobe Illustrator 24.0.1, SVG Export Plug-In . SVG Version: 6.00 Build 0)  -->
<svg version="1.1" id="Layer_1" xmlns="http://www.w3.org/2000/svg" xmlns:xlink="http://www.w3.org/1999/xlink" x="0px" y="0px"
	 viewBox="0 0 660 660" style="enable-background:new 0 0 660 660;" xml:space="preserve">
<circle style="fill:#FFFFFC;stroke:#000000;stroke-width:4.7499;" cx="323.413" cy="323.428" r="296.797"/>
<ellipse transform="matrix(0.7071 -0.7071 0.7071 0.7071 -133.9729 323.4176)" style="fill:#277346;" cx="323.413" cy="323.428" rx="261.038" ry="261.038"/>
<path style="stroke:#FFFFFC;stroke-width:1.5833;" d="M312.433,394.039c0,69.207,56.105,125.313,125.314,125.313
	c69.21,0,125.315-56.106,125.315-125.313c0-59.393-41.332-109.099-96.789-122.016c13.132-22.789,39.551-68.637,92.732-160.918
	h-96.385L341.838,313.415C323.968,340.085,312.433,363.327,312.433,394.039z M484.741,394.039c0,25.953-21.042,46.993-46.995,46.993
	c-25.952,0-46.994-21.04-46.994-46.993c0-25.954,21.042-46.994,46.994-46.994C463.7,347.045,484.741,368.085,484.741,394.039z"/>
<path style="stroke:#FFFFFC;stroke-width:1.5833;" d="M335.873,250.885c0-69.208-56.106-125.313-125.317-125.313
	c-69.207,0-125.313,56.105-125.313,125.313c0,59.391,41.332,109.097,96.791,122.015c-13.132,22.789-39.552,68.636-92.733,160.918
	h96.385L306.466,331.51C322.857,300.11,335.873,281.599,335.873,250.885z M163.566,250.885c0-25.952,21.037-46.993,46.99-46.993
	c25.954,0,46.995,21.04,46.995,46.993c0,25.954-21.042,46.994-46.995,46.994C184.604,297.879,163.566,276.839,163.566,250.885z"/>
</svg>
